X:3131
T:Johnny Watt Henry's
O:england
R:reel
M:C|
K:D
A2~A2 B2AF|DFAF EDB,D|A2~A2 B2AB|dBAF EDB,D:|
d2fd edfd|d2fd BdAB|d2fd edfe|dBAF EDB,D|
d2fd edfd|d2fd BdAd|fdec d2AB|dBAF EDB,D||
"variations"
|:A2dA B2AF|DFAF EDB,D|~A3d B2AB|dBAF EDB,D:|
defd e2fe|defd BAFA|~d3f e2fe|dBAF EDB,D|
defd e2fe|defd BAFA|f2ed BdAB|dBAF EDB,D||


